src/img/channel/channel_37.svg

<svg fill="none" height="100" viewBox="0 0 82 100" width="82" xmlns="http://www.w3.org/2000/svg"><g clip-rule="evenodd" fill-rule="evenodd"><path d="m3.49903.449757c1.10767-.5267073 2.35827-.44981484 3.55064-.44068735 22.27783.01323385 44.55433-.01058707 66.83093-.00397015 1.2003.0304378 2.4509-.1138105 3.589.3652545 2.1452.803296 3.7147 2.955116 3.7385 5.259126l.0622 94.37052c-.3573-.438-.4856-1.0018-.7-1.5126-.9251-2.2987-1.9613-4.5604-3.2476-6.6805-1.8964-3.1655-4.4373-6.0359-7.6664-7.8807-3.5374-2.0923-7.718-2.8744-11.7887-2.8135-17.1603.0039-34.3193-.0119-51.47963-.004-.96607.0318-1.95463-.0754-2.85189-.4552-2.00625-.8166-3.439473-2.8374-3.53608-5.0024.00264677-23.3419-.00264677-46.6851.00264677-70.02691.02117413-2.21799 1.45175323-4.32217 3.49638323-5.174433z" fill="#e3282d"/><path d="m41.2486 18.7138c1.5457-.1879 3.1695-.0185 4.5484.745 2.0116 1.0336 3.4699 3.065 3.7783 5.3095.2977 1.7574-.1244 3.6141-1.0971 5.1016-1.0402 1.6145-2.7725 2.7394-4.6464 3.1192-1.7217.3428-3.5612.0437-5.0725-.8562-1.6728-.9568-2.8744-2.6296-3.3773-4.4757-.5108-1.9824-.1257-4.1753 1.0547-5.8507 1.0799-1.6489 2.885-2.7513 4.8119-3.0927zm-15.2798-4.7443c-1.7985 2.1399-3.0624 4.743-3.5308 7.5049-.5122 2.7605-.2184 5.6786.9171 8.2539.9938 2.1902 2.5938 4.0522 4.436 5.5767 2.8161 2.2154 6.1087 3.7426 9.4979 4.8542 2.48.8523 5.0884 1.334 7.4692 2.4602 2.0115.9105 3.99 2.1796 5.1334 4.125.9555 1.6158 1.1301 3.6049.6683 5.406-.4711 1.9348-1.6741 3.6883-3.3296 4.7999-1.4889 1.0362-3.3059 1.5775-5.1176 1.5404-2.1968-.09-4.342-1.0587-5.8573-2.6507-1.4332-1.5934-2.3159-3.7214-2.2683-5.8772.045-2.0883.8483-4.1726 2.3107-5.6773.2951-.2898.5743-.5955.8575-.8972-1.0878-.3798-2.1068-.937-3.1721-1.3763-2.6402-1.1196-5.2433-2.3213-7.8808-3.4461-.3189-.1416-.6723-.2224-.9515-.4394-.1495.2554-.3533.4685-.5571.6789-2.7818 3.4196-4.4268 7.7987-4.3646 12.2228.0437 4.0429 1.4928 8.0091 3.9305 11.2223 2.7473 3.54 6.5984 6.2199 10.8835 7.5393 3.7703 1.2373 7.8477 1.4795 11.7517.8006 5.3173-.9104 10.3303-3.7015 13.738-7.9072 3.1245-3.8113 4.7205-8.8653 4.1898-13.7791-.2805-2.4601-1.015-4.874-2.2113-7.0457-1.2705-2.3106-3.0121-4.3446-5.0236-6.0412 2.6534-2.6031 4.5339-6.0465 4.9958-9.7573.2144-1.9771.135-4.0059-.4367-5.9208-1.2837-4.522-4.6173-8.2712-8.6417-10.59901-3.6341-2.11609-7.8848-3.17745-12.0865-2.98423-5.8176.29908-11.5995 2.89821-15.3499 7.41364z" fill="#fffffe"/></g></svg>

<svg width="82" height="100" viewBox="0 0 82 100" fill="none" xmlns="http://www.w3.org/2000/svg">
<path fill-rule="evenodd" clip-rule="evenodd" d="M3.49903 0.449757C4.6067 -0.0769503 5.8573 -5.78426e-05 7.04967 0.00906965C29.3275 0.0223035 51.604 -0.00151742 73.8806 0.0050995C75.0809 0.0355373 76.3315 -0.108711 77.4696 0.370354C79.6148 1.17365 81.1843 3.32547 81.2081 5.62948L81.2703 100C80.913 99.562 80.7847 98.9982 80.5703 98.4874C79.6452 96.1887 78.609 93.927 77.3227 91.8069C75.4263 88.6414 72.8854 85.771 69.6563 83.9262C66.1189 81.8339 61.9383 81.0518 57.8676 81.1127C40.7073 81.1166 23.5483 81.1008 6.38797 81.1087C5.4219 81.1405 4.43334 81.0333 3.53608 80.6535C1.52983 79.8369 0.096607 77.8161 0 75.6511C0.00264677 52.3092 -0.00264677 28.966 0.00264677 5.62419C0.0238209 3.4062 1.4544 1.30202 3.49903 0.449757Z" fill="#E3282D"/>
<path fill-rule="evenodd" clip-rule="evenodd" d="M41.2486 18.7138C42.7943 18.5259 44.4181 18.6953 45.797 19.4588C47.8086 20.4924 49.2669 22.5238 49.5753 24.7683C49.873 26.5257 49.4509 28.3824 48.4782 29.8699C47.438 31.4844 45.7057 32.6093 43.8318 32.9891C42.1101 33.3319 40.2706 33.0328 38.7593 32.1329C37.0865 31.1761 35.8849 29.5033 35.382 27.6572C34.8712 25.6748 35.2563 23.4819 36.4367 21.8065C37.5166 20.1576 39.3217 19.0552 41.2486 18.7138ZM25.9688 13.9695C24.1703 16.1094 22.9064 18.7125 22.438 21.4744C21.9258 24.2349 22.2196 27.153 23.3551 29.7283C24.3489 31.9185 25.9489 33.7805 27.7911 35.305C30.6072 37.5204 33.8998 39.0476 37.289 40.1592C39.769 41.0115 42.3774 41.4932 44.7582 42.6194C46.7697 43.5299 48.7482 44.799 49.8916 46.7444C50.8471 48.3602 51.0217 50.3493 50.5599 52.1504C50.0888 54.0852 48.8858 55.8387 47.2303 56.9503C45.7414 57.9865 43.9244 58.5278 42.1127 58.4907C39.9159 58.4007 37.7707 57.432 36.2554 55.84C34.8222 54.2466 33.9395 52.1186 33.9871 49.9628C34.0321 47.8745 34.8354 45.7902 36.2978 44.2855C36.5929 43.9957 36.8721 43.69 37.1553 43.3883C36.0675 43.0085 35.0485 42.4513 33.9832 42.012C31.343 40.8924 28.7399 39.6907 26.1024 38.5659C25.7835 38.4243 25.4301 38.3435 25.1509 38.1265C25.0014 38.3819 24.7976 38.595 24.5938 38.8054C21.812 42.225 20.167 46.6041 20.2292 51.0282C20.2729 55.0711 21.722 59.0373 24.1597 62.2505C26.907 65.7905 30.7581 68.4704 35.0432 69.7898C38.8135 71.0271 42.8909 71.2693 46.7949 70.5904C52.1122 69.68 57.1252 66.8889 60.5329 62.6832C63.6574 58.8719 65.2534 53.8179 64.7227 48.9041C64.4422 46.444 63.7077 44.0301 62.5114 41.8584C61.2409 39.5478 59.4993 37.5138 57.4878 35.8172C60.1412 33.2141 62.0217 29.7707 62.4836 26.0599C62.698 24.0828 62.6186 22.054 62.0469 20.1391C60.7632 15.6171 57.4296 11.8679 53.4052 9.54009C49.7711 7.424 45.5204 6.36264 41.3187 6.55586C35.5011 6.85494 29.7192 9.45407 25.9688 13.9695Z" fill="#FFFFFE"/>
</svg>
